X: 2
T: The Wind That Shakes The Barley
R: reel
M: 4/4
L: 1/8
K: Emin
|B2Gc BGFE|c2cB cdec|B2Gc BGFE|agfe cdec|~B3c BGFG|EccB cdec|B2Gc BGFE|agfe cdef||~g3e ~a3f|~g3e cdef|~g3e a2ga|bgfe cdef|~g3e ~a3f|~g3e cdef|efga bgc'g|bgfe cdec|]


Tune 116	Setting 23706

